svgs/sharp-regular/repeat-1.svg

<svg xmlns="http://www.w3.org/2000/svg" viewBox="0 0 512 512"><!--! Font Awesome Pro 6.6.0 by @fontawesome - https://fontawesome.com License - https://fontawesome.com/license (Commercial License) Copyright 2024 Fonticons, Inc. --><path d="M448 96L352 0 320 0l0 72L24 72 0 72 0 96 0 256l0 24 48 0 0-24 0-136 272 0 0 72 32 0 96-96zM216 240l8 0 16 0 0 56 0 24 48 0 0-24 0-80 0-24-24 0-40 0-8 0 0 48zm296 16l0-24-48 0 0 24 0 136-272 0 0-72-32 0L64 416l96 96 32 0 0-72 296 0 24 0 0-24 0-160z"/></svg>

<svg xmlns="http://www.w3.org/2000/svg" viewBox="0 0 512 512"><!--! Font Awesome Pro 6.4.0 by @fontawesome - https://fontawesome.com License - https://fontawesome.com/license (Commercial License) Copyright 2023 Fonticons, Inc. --><path d="M448 96L352 0H320V72H24 0V96 256v24H48V256 120H320v72h32l96-96zM216 240h8 16v56 24h48V296 216 192H264 224h-8v48zm296 16V232l-48 0v24l0 136-272 0V320H160L64 416l96 96h32V440l296 0h24V416l0-160z"/></svg>
